X:1
T:The Angel of the Lord
T:The Angel of the Lord
T:Robert Lowry
T:Annie Sherwood Hawks, 1875
T:Public Domain Courtesy of the Cyber Hymnal™
T:Public Domain Courtesy of the Cyber Hymnal™
C:Robert Lowry
Z:Public Domain
Z:Courtesy of the Cyber Hymnal™
%%score ( 1 2 ) ( 3 4 )
L:1/8
Q:1/4=78
M:2/4
K:G
V:1 treble 
V:2 treble 
V:3 bass 
V:4 bass 
V:1
 [DB] | [DB]2 [CA]2 | [B,G][DF] [CE][B,D] | (G2 [GB])[EA] | (G2 F) (D/E/) | [DF][DG] [FA][GB] | %6
w: 1.~Be|still, my|doubt- ing soul, no|long- * er|fear; * The *|an- gel of the|
w: 2.~His|an- gel|ev- er- more en-|camp- * eth|near * To *|those who keep His|
w: 3.~I|thank Thee,|O my God, that|while * I|live, * Thou *|dost in times of|
 [Ac]3 ([Bd]/[Ac]/) | ([GB][Gc]/[EA]/ [DG])[DF] | [DG]4 | [FA]2 [GB][FA] | [Fd][A^c] [GB][FA] | %11
w: Lord en- *|camp- * * * eth|near;|Trust now the|liv- ing God; His|
w: word with *|ho- * * * ly|fear;|My eyes do|not be- hold his|
w: need de- *|liv- * * * ’rance|give;|So, when death’s|hour draws nigh, I|
 (B^c) ([Fd][Ge]) | ([Fd]2 [E^c]) ([^CA]/[DB]/) | [E^c][Fd] [Ge][Ec] | (d A2) [GB] | %15
w: prom- * ise *|take; * He *|this as- sur- ance|gives * for|
w: wings * of *|light, * But *|in my rest- ful|soul * I|
w: need * not *|fear; * The *|an- gel of Thy|love * will|
 ([FA][EG]) ([EG][^CE]) | D3 |:"^Refrain" [Fd] | (d2 B)[Gd] | (d2 B)[Gd]/[Gd]/ | %20
w: Je- * sus’ *|sake.|Sing|praise, * sing|praise, * For the|
w: feel * his *|might.||||
w: still * be *|near.||||
 [Ge][Ge] [Ge][Ge] | (d2 B)[Bd] | [Ac] [FA]2 [Fd]/[Fd]/ | [Gd] [GB]2 [GB] |1 [GB][Bd] [Ac][GB] | %25
w: an- gel of the|Lord * En-|camp- eth round a-|bout us, And|guards us with his|
w: |||||
w: |||||
 [FA]3 :|2 [Gd][Gc] [GB][FA] || G3 |] %28
w: sword;|guards us with his|sword.|
w: |||
w: |||
V:2
 x | x4 | x4 | D3 x | D3 D | x4 | x4 | x4 | x4 | x4 | x4 | G2 x2 | x4 | x4 | F3 x | x4 | D3 |: x | %18
 G3 x | G3 x | x4 | G3 x | x4 | x4 |1 x4 | x3 :|2 x4 || G3 |] %28
V:3
 [G,,G,] | [G,,G,]2 [G,,G,]2 | [G,,G,][G,,G,] [G,,G,][G,,G,] | (B,2 D)[C,C] | (B,2 A,) (F,/G,/) | %5
w: ~|~ ~|~ ~ ~ ~|~ * ~|~ * ~ *|
 [D,A,][D,B,] [D,D][D,D] | [D,D]3 [D,D] | ([G,D][C,E]/C/ [D,C])[D,A,] | [G,,B,]4 | %9
w: ~ ~ ~ ~|~ ~|~ * * * ~|~|
 [D,D]2 [D,D][D,D] | [D,D][D,D] [D,D][D,D] | ([G,D][E,A,]) ([D,A,][G,B,]) | A,3 A, | %13
w: ~ ~ ~|~ ~ ~ ~|~ * ~ *|~ ~|
 A,A, A,[A,,A,] | (A, D2) [G,D] | (DA,) (A,G,) | [D,F,]3 |: (A,/C/) | [G,B,][G,B,] [G,D][G,B,] | %19
w: ~ ~ ~ ~|~ * ~|~ * ~ *|~|Sing *|praise, sing praise, sing|
 [G,B,][G,B,] [G,D][G,B,]/[G,B,]/ | [C,C][C,C] CC | (B,2 D)[G,D] | [D,D] [D,D]2 [D,D]/[D,D]/ | %23
w: praise, sing praise * *||||
 [G,B,] [G,D]2 [G,D] |1 [G,D][G,D] [G,D][G,D] | [D,D]3 :|2 [B,,D][C,E] [D,D][D,C] || [G,,B,]3 |] %28
w: |||||
V:4
 x | x4 | x4 | G,,3 x | D,3 D, | x4 | x4 | x4 | x4 | x4 | x4 | x4 | A,3 A, | A,A, A, x | D,3 x | %15
 A,2 A,,2 | x3 |: D, | x4 | x4 | x2 (C,/D,/) (E,/F,/) | G,3 x | x4 | x4 |1 x4 | x3 :|2 x4 || x3 |] %28

